gd/trunk/website/tcdocs/i/reskin/nav/events.svg

<?xml version="1.0" encoding="UTF-8" standalone="no"?>
<svg width="32px" height="32px" viewBox="0 0 32 32" version="1.1" xmlns="http://www.w3.org/2000/svg" xmlns:xlink="http://www.w3.org/1999/xlink" xmlns:sketch="http://www.bohemiancoding.com/sketch/ns">
    <!-- Generator: Sketch 3.3.3 (12081) - http://www.bohemiancoding.com/sketch -->
    <title>nav/events</title>
    <desc>Created with Sketch.</desc>
    <defs></defs>
    <g id="Page-1" stroke="none" stroke-width="1" fill="none" fill-rule="evenodd" sketch:type="MSPage">
        <g id="nav/events" sketch:type="MSArtboardGroup" stroke="#F6F6F6" stroke-width="1.2" stroke-linecap="round" stroke-linejoin="round">
            <path d="M25.6670759,3.65148276 L30.9997517,3.65148276 L30.9997517,30.166631 L1.66641379,30.166631 L1.66641379,3.65148276 L6.99974759,3.65148276" id="Stroke-19" sketch:type="MSShapeGroup"></path>
            <path d="M11.0000345,3.65148276 L21.6667,3.65148276" id="Stroke-21" sketch:type="MSShapeGroup"></path>
            <path d="M7,1 L11.0000003,1 L11.0000003,6.30303069 L7,6.30303069 L7,1 L7,1 Z" id="Stroke-23" sketch:type="MSShapeGroup"></path>
            <path d="M21.6666897,1 L25.66669,1 L25.66669,6.30303069 L21.6666897,6.30303069 L21.6666897,1 L21.6666897,1 Z" id="Stroke-25" sketch:type="MSShapeGroup"></path>
            <path d="M1.66662069,10.2803448 L30.9999586,10.2803448" id="Stroke-27" sketch:type="MSShapeGroup"></path>
            <path d="M19.0000103,14.2576207 L13.6666786,14.2576207 L8.33334483,14.2576207 L8.33334483,19.5606514 L8.33334483,24.8636862 L13.6666786,24.8636862 L19.0000103,24.8636862 L19.0000103,19.5606514 L24.3333483,19.5606514 L24.3333483,14.2576207 L19.0000103,14.2576207 L19.0000103,14.2576207 Z" id="Stroke-29" sketch:type="MSShapeGroup"></path>
            <path d="M13.6666207,14.2576207 L13.6666207,24.8636862" id="Stroke-31" sketch:type="MSShapeGroup"></path>
            <path d="M19.0000103,14.2576207 L19.0000103,19.5606514 L8.33334483,19.5606514" id="Stroke-33" sketch:type="MSShapeGroup"></path>
        </g>
    </g>
</svg>

<svg xmlns="http://www.w3.org/2000/svg" width="32" height="32" viewBox="0 0 32 32"><g fill="none" fill-rule="evenodd" stroke="#FFF" stroke-width="2" stroke-linecap="round" stroke-linejoin="round"><path d="M25.667 3.651H31v26.516H1.666V3.651H7M11 3h10.667"/><path d="M7 1h4v5.303H7zM21.667 1h4v5.303h-4zM1.667 10H31M19 14.258H8.333v10.606H19v-5.303h5.333v-5.303zM13 14.258v10.606"/><path d="M19 14.258v5.303H8.333"/></g></svg>
